logos/amazon-connect.svg

<?xml version="1.0" encoding="UTF-8"?>
<svg width="256px" height="235px" viewBox="0 0 256 235" version="1.1" xmlns="http://www.w3.org/2000/svg" xmlns:xlink="http://www.w3.org/1999/xlink" preserveAspectRatio="xMidYMid">
    <g>
        <path d="M246.7735,71.523 C240.8505,57.487 232.3675,44.902 221.5635,34.119 C199.5105,12.11 170.1585,0 138.8815,0 L138.6405,0 C117.7525,0.041 96.7735,6.078 77.9725,17.457 C60.2255,28.198 45.4255,43.298 36.3005,59.977 C35.5265,61.392 36.0465,63.167 37.4615,63.941 C38.8775,64.715 40.6505,64.195 41.4245,62.78 C50.0625,46.991 64.1165,32.669 80.9965,22.453 C98.8895,11.624 118.8265,5.879 138.6525,5.84 L138.8805,5.84 C168.5985,5.84 196.4885,17.346 217.4385,38.253 C238.5395,59.312 250.1595,87.404 250.1595,117.354 C250.1595,147.14 238.5605,175.143 217.4985,196.205 C196.4365,217.267 168.4335,228.867 138.6465,228.867 C118.8945,228.867 99.4885,223.635 82.5275,213.738 C66.0635,204.131 52.2375,190.375 42.5465,173.958 C41.7265,172.568 39.9355,172.108 38.5465,172.927 C37.1585,173.747 36.6975,175.538 37.5175,176.926 C47.7135,194.2 62.2605,208.674 79.5845,218.783 C97.4375,229.2 117.8605,234.707 138.6465,234.707 C169.9925,234.707 199.4625,222.5 221.6275,200.335 C243.7935,178.169 256.0005,148.7 256.0005,117.354 C256.0005,101.449 252.8965,86.03 246.7735,71.523 M13.6275,84.1368 L50.4945,84.1368 C52.1065,84.1368 53.4145,82.8288 53.4145,81.2168 C53.4145,79.6038 52.1065,78.2968 50.4945,78.2968 L13.6275,78.2968 C12.0145,78.2968 10.7075,79.6038 10.7075,81.2168 C10.7075,82.8288 12.0145,84.1368 13.6275,84.1368 M37.962,119.0567 C37.962,117.4437 36.655,116.1367 35.042,116.1367 L2.92,116.1367 C1.307,116.1367 5.68434189e-14,117.4437 5.68434189e-14,119.0567 C5.68434189e-14,120.6697 1.307,121.9767 2.92,121.9767 L35.042,121.9767 C36.655,121.9767 37.962,120.6697 37.962,119.0567 M50.3727,156.897 C50.3727,155.284 49.0657,153.977 47.4527,153.977 L8.0307,153.977 C6.4177,153.977 5.1107,155.284 5.1107,156.897 C5.1107,158.509 6.4177,159.817 8.0307,159.817 L47.4527,159.817 C49.0657,159.817 50.3727,158.509 50.3727,156.897 M76.3937,95.6573 C77.1597,95.5323 77.8437,95.1083 78.2957,94.4783 C78.7487,93.8483 78.9317,93.0643 78.8047,92.2993 C76.6437,79.2313 78.8317,67.6083 85.1347,58.6843 C90.6757,50.8393 99.2737,45.2853 109.3457,43.0473 C129.2277,38.6293 153.1327,47.6243 160.3517,73.3663 C160.5827,74.1903 161.1637,74.8713 161.9407,75.2293 C162.7177,75.5883 163.6127,75.5873 164.3887,75.2283 C172.4567,71.4993 180.6747,71.2353 187.5327,74.4863 C194.5207,77.7993 199.5977,84.3803 201.8267,93.0183 C202.1117,94.1223 203.0127,94.9593 204.1337,95.1623 C223.1647,98.6063 231.1727,113.1523 230.6667,126.0393 C230.3977,132.8963 227.7787,139.3793 223.2927,144.2923 C218.3107,149.7503 211.2267,153.0963 202.8017,153.9763 L170.6767,153.9763 C169.9387,153.9763 169.2277,154.2563 168.6867,154.7603 L119.7267,200.3473 L119.7267,156.5323 C119.7267,154.9193 118.4187,153.6123 116.8067,153.6123 L77.5227,153.6123 C69.6767,153.0183 62.9697,149.8123 58.1227,144.3363 C53.6957,139.3323 51.0847,132.7273 50.7737,125.7363 C50.4627,118.7583 52.5007,112.0293 56.5117,106.7903 C61.0287,100.8903 67.9037,97.0413 76.3937,95.6573 M44.9387,125.9963 C45.6087,141.0263 55.9917,157.9043 77.2037,159.4443 C77.2737,159.4493 77.3437,159.4523 77.4147,159.4523 L113.8857,159.4523 L113.8857,207.0563 C113.8857,208.2193 114.5757,209.2703 115.6407,209.7343 C116.0157,209.8973 116.4127,209.9773 116.8057,209.9773 C117.5307,209.9773 118.2447,209.7073 118.7957,209.1943 L171.8257,159.8173 L202.9507,159.8173 C203.0487,159.8173 203.1467,159.8123 203.2447,159.8023 C225.3967,157.5673 235.9107,141.3493 236.5027,126.2683 C236.8307,117.8973 234.2167,109.7073 229.1407,103.2053 C223.8577,96.4393 216.2237,91.8213 206.9797,89.7783 C204.0827,80.3033 198.1167,73.0403 190.0337,69.2083 C182.4727,65.6253 173.6887,65.4513 164.9987,68.6563 C160.9047,56.7533 153.1917,47.5293 142.5447,41.8593 C132.1437,36.3213 119.9037,34.7183 108.0787,37.3463 C96.5867,39.9003 86.7437,46.2823 80.3647,55.3153 C73.6227,64.8603 70.9727,76.9573 72.6367,90.4413 C52.6407,94.9793 44.2837,111.2863 44.9387,125.9963 M93.1246,110.542 C97.7536,110.542 101.5206,114.308 101.5206,118.937 C101.5206,123.566 97.7536,127.333 93.1246,127.333 C88.4956,127.333 84.7286,123.566 84.7286,118.937 C84.7286,114.308 88.4956,110.542 93.1246,110.542 M127.1686,85.465 C131.7976,85.465 135.5636,89.231 135.5636,93.86 C135.5636,98.49 131.7976,102.256 127.1686,102.256 C122.5396,102.256 118.7726,98.49 118.7726,93.86 C118.7726,89.231 122.5396,85.465 127.1686,85.465 M155.5226,134.034 C155.5226,138.664 151.7566,142.43 147.1266,142.43 C142.4976,142.43 138.7316,138.664 138.7316,134.034 C138.7316,129.405 142.4976,125.639 147.1266,125.639 C151.7566,125.639 155.5226,129.405 155.5226,134.034 M179.3466,99.833 C183.9756,99.833 187.7416,103.599 187.7416,108.228 C187.7416,112.857 183.9756,116.623 179.3466,116.623 C174.7166,116.623 170.9506,112.857 170.9506,108.228 C170.9506,103.599 174.7166,99.833 179.3466,99.833 M93.1246,133.173 C100.9746,133.173 107.3606,126.787 107.3606,118.937 C107.3606,116.937 106.9436,115.032 106.1956,113.303 L117.4256,104.226 C119.9746,106.623 123.4016,108.096 127.1686,108.096 C127.9336,108.096 128.6836,108.034 129.4166,107.917 L137.0596,123.98 C134.4856,126.557 132.8916,130.113 132.8916,134.034 C132.8916,141.884 139.2776,148.27 147.1266,148.27 C154.9766,148.27 161.3626,141.884 161.3626,134.034 C161.3626,131.646 160.7686,129.394 159.7246,127.415 L170.2926,119.206 C172.7546,121.24 175.9106,122.463 179.3466,122.463 C187.1956,122.463 193.5816,116.078 193.5816,108.228 C193.5816,100.378 187.1956,93.992 179.3466,93.992 C171.4966,93.992 165.1106,100.378 165.1106,108.228 C165.1106,110.536 165.6656,112.715 166.6446,114.645 L155.9986,122.913 C153.5636,120.967 150.4796,119.799 147.1266,119.799 C145.3176,119.799 143.5876,120.142 141.9946,120.76 L134.8836,105.815 C138.8036,103.276 141.4036,98.868 141.4036,93.86 C141.4036,86.011 135.0186,79.625 127.1686,79.625 C119.3186,79.625 112.9326,86.011 112.9326,93.86 C112.9326,95.836 113.3376,97.719 114.0686,99.43 L102.8166,108.524 C100.2736,106.155 96.8666,104.702 93.1246,104.702 C85.2746,104.702 78.8886,111.087 78.8886,118.937 C78.8886,126.787 85.2746,133.173 93.1246,133.173" fill="#26BF95"></path>
    </g>
</svg>

<svg width="256" height="235" xmlns="http://www.w3.org/2000/svg" preserveAspectRatio="xMidYMid">
	<path d="M246.774 71.523c-5.923-14.036-14.406-26.621-25.21-37.404C199.51 12.11 170.159 0 138.88 0h-.24c-20.888.041-41.867 6.078-60.668 17.457C60.224 28.198 45.425 43.298 36.3 59.977a2.921 2.921 0 0 0 5.123 2.803c8.639-15.789 22.693-30.111 39.572-40.327C98.89 11.624 118.826 5.879 138.654 5.84h.228c29.718 0 57.607 11.506 78.558 32.413 21.1 21.059 32.72 49.151 32.72 79.101 0 29.786-11.599 57.789-32.66 78.851-21.063 21.062-49.065 32.662-78.852 32.662-19.752 0-39.158-5.232-56.12-15.129a112.196 112.196 0 0 1-39.98-39.78 2.92 2.92 0 1 0-5.029 2.968 118.044 118.044 0 0 0 42.067 41.857c17.853 10.417 38.276 15.924 59.062 15.924 31.346 0 60.816-12.207 82.98-34.372C243.793 178.169 256 148.7 256 117.354c0-15.905-3.103-31.324-9.226-45.831M13.627 84.137h36.867a2.92 2.92 0 0 0 0-5.84H13.628a2.92 2.92 0 1 0 0 5.84m24.335 34.92a2.92 2.92 0 0 0-2.92-2.92H2.92a2.92 2.92 0 1 0 0 5.84h32.122a2.92 2.92 0 0 0 2.92-2.92m12.41 37.84a2.92 2.92 0 0 0-2.92-2.92H8.032a2.92 2.92 0 1 0 0 5.84h39.422a2.92 2.92 0 0 0 2.92-2.92m26.02-61.24a2.919 2.919 0 0 0 2.412-3.358c-2.161-13.068.027-24.69 6.33-33.615 5.54-7.845 14.139-13.399 24.21-15.637 19.883-4.418 43.788 4.577 51.007 30.32a2.919 2.919 0 0 0 4.037 1.861c8.068-3.729 16.286-3.993 23.144-.742 6.988 3.313 12.065 9.894 14.294 18.532a2.92 2.92 0 0 0 2.307 2.144c19.03 3.444 27.039 17.99 26.533 30.877-.27 6.857-2.888 13.34-7.374 18.253-4.982 5.458-12.066 8.804-20.491 9.684h-32.125a2.92 2.92 0 0 0-1.99.784l-48.96 45.587v-43.815a2.92 2.92 0 0 0-2.92-2.92H77.523c-7.846-.594-14.553-3.8-19.4-9.276-4.427-5.004-7.038-11.609-7.35-18.6-.31-6.978 1.728-13.707 5.739-18.946 4.517-5.9 11.392-9.749 19.882-11.133m-31.455 30.34c.67 15.03 11.053 31.907 32.265 33.447.07.005.14.008.21.008h36.472v47.604a2.921 2.921 0 0 0 4.91 2.138l53.03-49.377h31.125c.098 0 .196-.005.294-.015 22.152-2.235 32.666-18.453 33.258-33.534.328-8.37-2.286-16.56-7.362-23.063-5.283-6.766-12.917-11.384-22.161-13.427-2.897-9.475-8.863-16.738-16.946-20.57-7.561-3.583-16.345-3.757-25.035-.552-4.094-11.903-11.807-21.127-22.454-26.797-10.401-5.538-22.641-7.14-34.466-4.513-11.492 2.554-21.335 8.936-27.714 17.97-6.742 9.544-9.392 21.641-7.728 35.125-19.996 4.538-28.353 20.845-27.698 35.555m48.186-15.454c4.629 0 8.396 3.766 8.396 8.395s-3.767 8.396-8.396 8.396c-4.63 0-8.396-3.767-8.396-8.396 0-4.629 3.767-8.395 8.396-8.395m34.044-25.077c4.629 0 8.395 3.766 8.395 8.395 0 4.63-3.766 8.396-8.395 8.396-4.63 0-8.396-3.766-8.396-8.396 0-4.629 3.767-8.395 8.396-8.395m28.354 48.569c0 4.63-3.766 8.396-8.396 8.396-4.63 0-8.395-3.766-8.395-8.396 0-4.629 3.766-8.395 8.395-8.395 4.63 0 8.396 3.766 8.396 8.395m23.824-34.201c4.629 0 8.395 3.766 8.395 8.395s-3.766 8.395-8.395 8.395c-4.63 0-8.396-3.766-8.396-8.395s3.766-8.395 8.396-8.395m-86.222 33.34c7.85 0 14.236-6.386 14.236-14.236 0-2-.417-3.905-1.165-5.634l11.23-9.077a14.181 14.181 0 0 0 11.99 3.691l7.644 16.063a14.19 14.19 0 0 0-4.168 10.054c0 7.85 6.386 14.236 14.235 14.236 7.85 0 14.236-6.386 14.236-14.236 0-2.388-.594-4.64-1.638-6.619l10.568-8.209a14.172 14.172 0 0 0 9.054 3.257c7.849 0 14.235-6.385 14.235-14.235s-6.386-14.236-14.235-14.236c-7.85 0-14.236 6.386-14.236 14.236 0 2.308.555 4.487 1.534 6.417l-10.646 8.268a14.167 14.167 0 0 0-8.872-3.114 14.16 14.16 0 0 0-5.132.961l-7.111-14.945c3.92-2.539 6.52-6.947 6.52-11.955 0-7.849-6.385-14.235-14.235-14.235s-14.236 6.386-14.236 14.235c0 1.976.405 3.859 1.136 5.57l-11.252 9.094a14.177 14.177 0 0 0-9.692-3.822c-7.85 0-14.236 6.385-14.236 14.235s6.386 14.236 14.236 14.236" fill="#26BF95"/>
</svg>
